X:1
T:大提琴练习曲_Book1_P3_No.6
T:大提琴练习曲_Book1_P3_No.6
L:1/8
Q:1/4=80
M:4/4
K:C
V:1 bass nm="大提琴" snm="Vc."
V:1
 E,2 F,2 G,2 F,2 | E,2 F,2 E,2 D,2 | C,2 D,2 E,2 D,2 | C,2 D,2 C,2 E,2 | A,2 B,2 C2 B,2 | %5
 A,2 B,2 A,2 G,2 | F,2 G,2 A,2 G,2 | F,2 G,2 F,2 E,2 | D,2 G,2 F,2 D,2 | E,2 G,2 F,2 E,2 | %10
 D,2 G,2 F,2 D,2 | E,2 G,2 F,2 E,2 | D,2 E,2 F,2 E,2 | F,2 E,2 D,2 E,2 | D,2 C2 B,2 A,2 | %15
 G,2 A,2 G,2 F,2 | G,2 A,2 G,2 F,2 | E,2 F,2 E,2 D,2 | C,2 D,2 C,2 B,,2 | A,,2 E,2 A,2 B,2 | %20
 C2 D2 C2 B,2 | A,2 B,2 A,2 G,2 | F,2 G,2 F,2 E,2 | D,2 G,2 A,2 B,2 | C2 D2 C2 B,2 | A,8 | %26
 B,2 C2 B,2 A,2 | G,8 | A,2 B,2 A,2 G,2 | F,8 | G,2 A,2 G,2 F,2 | E,8 | F,2 E,2 F,2 G,2 | %33
 A,2 G,2 A,2 B,2 | C2 B,2 C2 D2 | C2 B,2 A,2 G,2 | F,2 A,2 G,2 F,2 | E,2 G,2 F,2 D,2 | C,4 B,,4 | %39
 C,8 |] %40

